X:44
T:44 Water Loo Fair or The Henryco
C:Welch MS
I:abc2nwc
M:2/4
L:1/16
K:D
A2|d2fd dcdB|A2A2 F2F2|d2fe defd|e2a2 a2A2|
d2fe dcdB|A2A2 F2F2|d2ef gedc|d2d2 d2:|
z2|a2ag f2fe|d2de fdef|gagf efed|cdBc ABcA|
d2d2 cecA|d2d2 cecA|dcde fedc|d2d2 d2:|

